icons/Finance/ticket-2-line.svg

<svg viewBox="0 0 24 24" xmlns="http://www.w3.org/2000/svg"><path d="M21.0049 3C21.5572 3 22.0049 3.44772 22.0049 4V9.5C20.6242 9.5 19.5049 10.6193 19.5049 12C19.5049 13.3807 20.6242 14.5 22.0049 14.5V20C22.0049 20.5523 21.5572 21 21.0049 21H3.00488C2.4526 21 2.00488 20.5523 2.00488 20V14.5C3.38559 14.5 4.50488 13.3807 4.50488 12C4.50488 10.6193 3.38559 9.5 2.00488 9.5V4C2.00488 3.44772 2.4526 3 3.00488 3H21.0049ZM20.0049 5H4.00488V7.968L4.16077 8.04908C5.49935 8.78105 6.42516 10.1735 6.49998 11.7882L6.50488 12C6.50488 13.7042 5.55755 15.1871 4.16077 15.9509L4.00488 16.031V19H20.0049V16.031L19.849 15.9509C18.5104 15.219 17.5846 13.8265 17.5098 12.2118L17.5049 12C17.5049 10.2958 18.4522 8.81287 19.849 8.04908L20.0049 7.968V5ZM16.0049 9V15H8.00488V9H16.0049Z"/></svg>

<svg xmlns="http://www.w3.org/2000/svg" viewBox="0 0 24 24">
    <g>
        <path fill="none" d="M0 0h24v24H0z"/>
        <path fill-rule="nonzero" d="M21 3a1 1 0 0 1 1 1v5.5a2.5 2.5 0 1 0 0 5V20a1 1 0 0 1-1 1H3a1 1 0 0 1-1-1v-5.5a2.5 2.5 0 1 0 0-5V4a1 1 0 0 1 1-1h18zm-1 2H4v2.968l.156.081a4.5 4.5 0 0 1 2.34 3.74L6.5 12a4.499 4.499 0 0 1-2.344 3.95L4 16.032V19h16v-2.969l-.156-.08a4.5 4.5 0 0 1-2.34-3.74L17.5 12c0-1.704.947-3.187 2.344-3.95L20 7.967V5zm-4 4v6H8V9h8z"/>
    </g>
</svg>
